X: 24071
T: Long Drop, The
R: reel
M: 4/4
K: Gmajor
|:gedg edBA|G~E3 GEDE|~G3A B2Bc|dBeB dBAB|
gedg edBA|G~E3 GEDE|~G3A B2 ge|dBAc BGG2:|
|:gBBA B2gB|BBgb aged|cBcd ~e3f|g2bg agef|
gBBA B2gB|BBgb aged|cBcd e2ge|dBAc BGG2:|

